wwwroot/images/icon.svg

<svg width="59" height="61" xmlns="http://www.w3.org/2000/svg">

 <g>
  <title>background</title>
  <rect fill="none" id="canvas_background" height="63" width="61" y="-1" x="-1"/>
 </g>
 <g>
  <title>Layer 1</title>
  <path id="svg_1" fill="#2A7FFF" d="m23.8027,13.6675c-16.43799,8.4439 -26.5749,24.6402 -22.64226,36.1746c3.93287,11.5333 20.44706,14.0387 36.88506,5.5939c5.3746,-2.7609 10.0763,-6.3513 13.8318,-10.3359c-3.4775,3.1591 -7.6257,5.9713 -12.2606,8.1611c-16.1453,7.6268 -32.07081,4.8177 -35.57212,-6.2747c-3.50062,-11.0914 6.74852,-26.2665 22.89312,-33.8933c6.5933,-3.11468 13.1498,-4.48789 18.8386,-4.26861c-6.4574,-0.68544 -14.2236,0.86169 -21.9736,4.84291z" clip-rule="evenodd" fill-rule="evenodd"/>
  <path id="svg_2" fill="#E31F25" d="m46.52,10.0996c-2.4528,-1.823 -8.5177,-5.75213 -15.4748,-7.5859c-6.9867,-1.84148 -20.9959,-1.308 -23.97008,9.0875c-3.59576,12.5659 5.16978,25.4361 20.12558,34.4186c14.9559,8.9828 26.455,5.1902 31.774,-0.4773c-4.6955,6.8308 -16.4577,11.1824 -33.3826,1.7257c-16.92494,-9.4566 -26.20646,-23.975 -22.47206,-36.6856c3.04708,-10.37209 18.09616,-12.34706 27.27106,-9.1894c6.4858,2.23236 12.0039,5.34771 16.1289,8.7064z" clip-rule="evenodd" fill-rule="evenodd"/>
 </g>
</svg>

<svg width="135" height="61" viewBox="0 0 135 61" fill="none" xmlns="http://www.w3.org/2000/svg">
<path fill-rule="evenodd" clip-rule="evenodd" d="M23.8027 13.6675C7.36471 22.1114 -2.7722 38.3077 1.16044 49.8421C5.09331 61.3754 21.6075 63.8808 38.0455 55.436C43.4201 52.6751 48.1218 49.0847 51.8773 45.1001C48.3998 48.2592 44.2516 51.0714 39.6167 53.2612C23.4714 60.888 7.54589 58.0789 4.04458 46.9865C0.543961 35.8951 10.7931 20.72 26.9377 13.0932C33.531 9.97852 40.0875 8.60531 45.7763 8.82459C39.3189 8.13915 31.5527 9.68628 23.8027 13.6675Z" fill="#2A7FFF"/>
<path fill-rule="evenodd" clip-rule="evenodd" d="M46.52 10.0996C44.0672 8.2766 38.0023 4.34747 31.0452 2.5137C24.0585 0.672219 10.0493 1.2057 7.07512 11.6012C3.47936 24.1671 12.2449 37.0373 27.2007 46.0198C42.1566 55.0026 53.6557 51.21 58.9747 45.5425C54.2792 52.3733 42.517 56.7249 25.5921 47.2682C8.66716 37.8116 -0.61436 23.2932 3.12004 10.5826C6.16712 0.210513 21.2162 -1.76446 30.3911 1.3932C36.8769 3.62556 42.395 6.74091 46.52 10.0996Z" fill="#E31F25"/>
</svg>
